icons/Windy Sleet Day--1504987.svg

<svg enable-background="new 0 0 16 16" viewBox="0 0 16 16" xmlns="http://www.w3.org/2000/svg"><path d="m13 6c-.228 0-.448-.025-.654-.073-.27-.063-.436-.333-.372-.602.062-.268.331-.434.601-.372.131.031.275.047.425.047 1.103 0 2-.897 2-2s-.897-2-2-2c-.891 0-1.685.599-1.93 1.457-.076.265-.351.416-.618.344-.265-.076-.419-.353-.343-.618.367-1.286 1.556-2.183 2.891-2.183 1.654 0 3 1.346 3 3s-1.346 3-3 3z"/><path d="m4.5 15c-.276 0-.5-.224-.5-.5s.224-.5.5-.5.5-.225.5-.5-.224-.5-.5-.5h-4c-.276 0-.5-.224-.5-.5s.224-.5.5-.5h4c.827 0 1.5.673 1.5 1.5s-.673 1.5-1.5 1.5z"/><path d="m6.5 11h-6c-.276 0-.5-.224-.5-.5s.224-.5.5-.5h6c.276 0 .5-.225.5-.5s-.224-.5-.5-.5-.5-.224-.5-.5.224-.5.5-.5c.827 0 1.5.673 1.5 1.5s-.673 1.5-1.5 1.5z"/><path d="m13 11h-3.5c-.276 0-.5-.224-.5-.5s.224-.5.5-.5h3.5c1.103 0 2-.897 2-2s-.897-2-2-2c-.147 0-.297.017-.428.042-.146.025-.297-.012-.411-.107-.114-.096-.181-.236-.181-.385-.146-1.16-.752-2.169-1.678-2.821-.669-.478-1.465-.729-2.302-.729-1.703 0-3.221 1.079-3.777 2.684-.085.245-.341.386-.594.321-.023-.005-.089-.005-.129-.005-1.378 0-2.5 1.122-2.5 2.5 0 .293.049.569.146.819.1.257-.028.547-.286.646-.256.1-.547-.027-.647-.285-.141-.366-.213-.763-.213-1.18 0-1.902 1.525-3.454 3.416-3.499.787-1.81 2.583-3.001 4.584-3.001 1.047 0 2.042.315 2.88.913 1.051.738 1.771 1.85 2.017 3.089 1.743-.059 3.103 1.31 3.103 2.998 0 1.654-1.346 3-3 3z"/><path d="m9.5 16c-.827 0-1.5-.673-1.5-1.5 0-.639.762-1.811 1.089-2.284.186-.27.637-.27.822 0 .327.473 1.089 1.645 1.089 2.284 0 .827-.673 1.5-1.5 1.5zm0-2.573c-.288.485-.496.921-.5 1.074 0 .274.225.499.5.499s.5-.225.5-.5c-.005-.153-.212-.588-.5-1.073z"/><path d="m13.5 16c-.276 0-.5-.224-.5-.5v-3c0-.276.224-.5.5-.5s.5.224.5.5v3c0 .276-.224.5-.5.5z"/><path d="m14.799 15.25c-.085 0-.171-.021-.25-.067l-2.598-1.5c-.239-.138-.321-.443-.183-.683.138-.239.445-.32.683-.183l2.598 1.5c.239.138.321.443.183.683-.092.16-.261.25-.433.25z"/><path d="m12.201 15.25c-.172 0-.341-.09-.433-.25-.139-.239-.057-.545.183-.683l2.598-1.5c.239-.139.546-.058.683.183.139.239.057.545-.183.683l-2.598 1.5c-.079.046-.165.067-.25.067z"/></svg>

<?xml version="1.0" encoding="utf-8"?>
<!DOCTYPE svg PUBLIC "-//W3C//DTD SVG 1.0//EN" "http://www.w3.org/TR/2001/REC-SVG-20010904/DTD/svg10.dtd">
<svg    fill="#000000" xmlns="http://www.w3.org/2000/svg" xmlns:xlink="http://www.w3.org/1999/xlink" version="1.1" x="0px" y="0px" viewBox="0 0 16 16" style="enable-background:new 0 0 16 16;" xml:space="preserve"><path d="M13,6c-0.228,0-0.448-0.025-0.654-0.073c-0.27-0.063-0.436-0.333-0.372-0.602c0.062-0.268,0.331-0.434,0.601-0.372  C12.706,4.984,12.85,5,13,5c1.103,0,2-0.897,2-2s-0.897-2-2-2c-0.891,0-1.685,0.599-1.93,1.457  c-0.076,0.265-0.351,0.416-0.618,0.344c-0.265-0.076-0.419-0.353-0.343-0.618C10.476,0.897,11.665,0,13,0c1.654,0,3,1.346,3,3  S14.654,6,13,6z"></path><path d="M4.5,15C4.224,15,4,14.776,4,14.5S4.224,14,4.5,14C4.776,14,5,13.775,5,13.5S4.776,13,4.5,13h-4C0.224,13,0,12.776,0,12.5  S0.224,12,0.5,12h4C5.327,12,6,12.673,6,13.5S5.327,15,4.5,15z"></path><path d="M6.5,11h-6C0.224,11,0,10.776,0,10.5S0.224,10,0.5,10h6C6.776,10,7,9.775,7,9.5S6.776,9,6.5,9C6.224,9,6,8.776,6,8.5  S6.224,8,6.5,8C7.327,8,8,8.673,8,9.5S7.327,11,6.5,11z"></path><path d="M13,11H9.5C9.224,11,9,10.776,9,10.5S9.224,10,9.5,10H13c1.103,0,2-0.897,2-2c0-1.103-0.897-2-2-2  c-0.147,0-0.297,0.017-0.428,0.042c-0.146,0.025-0.297-0.012-0.411-0.107C12.047,5.839,11.98,5.699,11.98,5.55  c-0.146-1.16-0.752-2.169-1.678-2.821C9.633,2.251,8.837,2,8,2C6.297,2,4.779,3.079,4.223,4.684C4.138,4.929,3.882,5.07,3.629,5.005  C3.606,5,3.54,5,3.5,5C2.122,5,1,6.122,1,7.5c0,0.293,0.049,0.569,0.146,0.819c0.1,0.257-0.028,0.547-0.286,0.646  c-0.256,0.1-0.547-0.027-0.647-0.285C0.072,8.314,0,7.917,0,7.5c0-1.902,1.525-3.454,3.416-3.499C4.203,2.191,5.999,1,8,1  c1.047,0,2.042,0.315,2.88,0.913c1.051,0.738,1.771,1.85,2.017,3.089C14.64,4.943,16,6.312,16,8C16,9.654,14.654,11,13,11z"></path><path d="M9.5,16C8.673,16,8,15.327,8,14.5c0-0.639,0.762-1.811,1.089-2.284c0.186-0.27,0.637-0.27,0.822,0  C10.238,12.689,11,13.861,11,14.5C11,15.327,10.327,16,9.5,16z M9.5,13.427c-0.288,0.485-0.496,0.921-0.5,1.074  C9,14.775,9.225,15,9.5,15s0.5-0.225,0.5-0.5C9.995,14.347,9.788,13.912,9.5,13.427z"></path><g><path d="M13.5,16c-0.276,0-0.5-0.224-0.5-0.5v-3c0-0.276,0.224-0.5,0.5-0.5s0.5,0.224,0.5,0.5v3C14,15.776,13.776,16,13.5,16z"></path><path d="M14.799,15.25c-0.085,0-0.171-0.021-0.25-0.067l-2.598-1.5c-0.239-0.138-0.321-0.443-0.183-0.683   c0.138-0.239,0.445-0.32,0.683-0.183l2.598,1.5c0.239,0.138,0.321,0.443,0.183,0.683C15.14,15.16,14.971,15.25,14.799,15.25z"></path><path d="M12.201,15.25c-0.172,0-0.341-0.09-0.433-0.25c-0.139-0.239-0.057-0.545,0.183-0.683l2.598-1.5   c0.239-0.139,0.546-0.058,0.683,0.183c0.139,0.239,0.057,0.545-0.183,0.683l-2.598,1.5C12.372,15.229,12.286,15.25,12.201,15.25z"></path></g></svg>
